img/vector-5.svg

<svg fill="none" height="44" viewBox="0 0 117 44" width="117" xmlns="http://www.w3.org/2000/svg"><path d="m33.0715 37.7667-30.94418-27.4685c-2.308805-2.0495-2.268169-5.67265.08594-7.66353 1.41297-1.19496 3.36544-1.51995 5.09026-.84728l42.08958 16.41471c5.6601 2.2074 11.9745 1.9819 17.4574-.6234l34.6285-16.45473c3.426-1.628035 7.529-.376562 9.475 2.88993l5.802 9.7413-59.8224 27.5614c-7.9467 3.6612-17.3073 2.2687-23.8621-3.5499z" fill="#241ed3"/></svg>

<svg width="117" height="44" viewBox="0 0 117 44" fill="none" xmlns="http://www.w3.org/2000/svg">
<path d="M33.0715 37.7667L2.12732 10.2982C-0.181485 8.2487 -0.140849 4.62555 2.21326 2.63467C3.62623 1.43971 5.5787 1.11472 7.30352 1.78739L49.3931 18.2021C55.0532 20.4095 61.3676 20.184 66.8505 17.5787L101.479 1.12397C104.905 -0.504065 109.008 0.747408 110.954 4.0139L116.756 13.7552L56.9336 41.3166C48.9869 44.9778 39.6263 43.5853 33.0715 37.7667Z" fill="#241ED3"/>
</svg>
